Numix/32/status/weather-few-clouds-night.svg

<?xml version="1.0" encoding="UTF-8" standalone="yes"?>
<svg xmlns="http://www.w3.org/2000/svg" xmlns:xlink="http://www.w3.org/1999/xlink" width="32px" height="32px" viewBox="0 0 24 24" version="1.1">
  <g id="surface1">
    <path style=" stroke:none;fill-rule:nonzero;fill:rgb(92.54902%,92.54902%,92.54902%);fill-opacity:1;" d="M 11.726562 4.125 C 7.527344 4.125 4.125 7.652344 4.125 12 C 4.125 16.347656 7.527344 19.875 11.726562 19.875 C 12.882812 19.875 13.972656 19.605469 14.953125 19.128906 C 12.367188 17.875 10.574219 15.15625 10.574219 12 C 10.574219 8.84375 12.367188 6.125 14.953125 4.871094 C 13.972656 4.394531 12.882812 4.125 11.726562 4.125 Z M 11.726562 4.125 "/>
    <path style=" stroke:none;fill-rule:nonzero;fill:rgb(84.705882%,84.705882%,84.705882%);fill-opacity:1;" d="M 11.628906 12.464844 C 11.488281 12.464844 11.332031 12.46875 11.175781 12.488281 C 8.683594 12.8125 8.757812 14.953125 8.757812 14.953125 C 7.734375 15.125 6.90625 16.015625 6.90625 16.949219 C 6.90625 17.882812 7.96875 18.707031 8.863281 18.945312 C 9.394531 19.089844 10.09375 18.945312 10.09375 18.945312 C 10.40625 19.503906 11.449219 19.875 12.175781 19.875 C 13.359375 19.875 14.578125 19.480469 14.855469 18.945312 C 14.855469 18.945312 19.761719 19.339844 20.777344 18.945312 C 22.261719 18.375 21.796875 16.589844 20.8125 15.988281 C 19.824219 15.382812 18.539062 15.804688 18.539062 15.804688 C 18.539062 15.804688 18.53125 14.578125 17.136719 13.988281 C 15.742188 13.402344 14.566406 14.703125 14.566406 14.703125 C 14.566406 14.703125 13.785156 12.476562 11.628906 12.464844 Z M 11.628906 12.464844 "/>
  </g>
</svg>

<svg xmlns="http://www.w3.org/2000/svg" width="32" height="32" viewBox="0 0 24 24">
 <g>
  <path d="m 11.727 4.125 c -4.199 0 -7.602 3.527 -7.602 7.875 c 0 4.348 3.402 7.875 7.602 7.875 c 1.156 0 2.246 -0.27 3.227 -0.746 c -2.586 -1.254 -4.379 -3.973 -4.379 -7.129 c 0 -3.156 1.793 -5.875 4.379 -7.129 c -0.98 -0.477 -2.07 -0.746 -3.227 -0.746 m 0 0" style="fill:#ececec;fill-opacity:1;stroke:none;fill-rule:nonzero"/>
  <path d="m 11.629 12.465 c -0.141 0 -0.297 0.004 -0.453 0.023 c -2.492 0.324 -2.418 2.465 -2.418 2.465 c -1.023 0.172 -1.852 1.063 -1.852 1.996 c 0 0.934 1.063 1.758 1.957 1.996 c 0.531 0.145 1.23 0 1.23 0 c 0.313 0.559 1.355 0.93 2.082 0.93 c 1.184 0 2.402 -0.395 2.68 -0.93 c 0 0 4.906 0.395 5.922 0 c 1.484 -0.57 1.02 -2.355 0.035 -2.957 c -0.988 -0.605 -2.273 -0.184 -2.273 -0.184 c 0 0 -0.008 -1.227 -1.402 -1.816 c -1.395 -0.586 -2.57 0.715 -2.57 0.715 c 0 0 -0.781 -2.227 -2.938 -2.238 m 0 0" style="fill:#d7d7d7;fill-opacity:1;stroke:none;fill-rule:nonzero"/>
 </g>
</svg>
